doc/UserGuideJa/fig/svg/tbl-5-1-1-v.svg

<?xml version="1.0" encoding="UTF-8" standalone="no"?>
<!-- Created with Inkscape (http://www.inkscape.org/) -->

<svg
   xmlns:dc="http://purl.org/dc/elements/1.1/"
   xmlns:cc="http://creativecommons.org/ns#"
   xmlns:rdf="http://www.w3.org/1999/02/22-rdf-syntax-ns#"
   xmlns:svg="http://www.w3.org/2000/svg"
   xmlns="http://www.w3.org/2000/svg"
   xmlns:sodipodi="http://sodipodi.sourceforge.net/DTD/sodipodi-0.dtd"
   xmlns:inkscape="http://www.inkscape.org/namespaces/inkscape"
   id="svg5094"
   sodipodi:version="0.32"
   inkscape:version="0.48.2 r9819"
   width="107.25052"
   height="110.13538"
   xml:space="preserve"
   sodipodi:docname="tbl-5-1-1-v.svg"
   version="1.0"
   inkscape:output_extension="org.inkscape.output.svg.inkscape"><metadata
     id="metadata5099"><rdf:RDF><cc:Work
         rdf:about=""><dc:format>image/svg+xml</dc:format><dc:type
           rdf:resource="http://purl.org/dc/dcmitype/StillImage" /></cc:Work></rdf:RDF></metadata><defs
     id="defs5097"><inkscape:perspective
   sodipodi:type="inkscape:persp3d"
   inkscape:vp_x="0 : 526.18109 : 1"
   inkscape:vp_y="0 : 1000 : 0"
   inkscape:vp_z="744.09448 : 526.18109 : 1"
   inkscape:persp3d-origin="372.04724 : 350.78739 : 1"
   id="perspective5101" /><clipPath
   clipPathUnits="userSpaceOnUse"
   id="clipPath5117"><path
     d="M 0,0 L 81,0 L 81,87 L 0,87 L 0,0 z"
     id="path5119" /></clipPath>







</defs><sodipodi:namedview
     inkscape:window-height="920"
     inkscape:window-width="1680"
     inkscape:pageshadow="2"
     inkscape:pageopacity="0.0"
     guidetolerance="10.0"
     gridtolerance="10.0"
     objecttolerance="10.0"
     borderopacity="1.0"
     bordercolor="#666666"
     pagecolor="#ffffff"
     id="base"
     showgrid="false"
     inkscape:zoom="4.5425287"
     inkscape:cx="50.625"
     inkscape:cy="54.375"
     inkscape:window-x="0"
     inkscape:window-y="0"
     inkscape:current-layer="g5103"
     inkscape:window-maximized="0" /><g
     id="g5103"
     inkscape:groupmode="layer"
     inkscape:label="tbl-5-1-1v"
     transform="matrix(1.25,0,0,-1.25,0.2527412,108.8776)"><g
       id="g5113"><g
         id="g5115"
         clip-path="url(#clipPath5117)"><path
           inkscape:connector-curvature="0"
           d="m 6.345,8.619 56.692,0 0,56.691 -56.692,0 0,-56.691 z"
           style="fill:none;stroke:#000000;stroke-width:0.47199999999999998;stroke-linecap:butt;stroke-linejoin:miter;stroke-miterlimit:10;stroke-opacity:1;stroke-dasharray:none"
           id="path5121" /><path
           inkscape:connector-curvature="0"
           d="M 6.345,65.31 20.518,79.482"
           style="fill:none;stroke:#000000;stroke-width:0.47199999999999998;stroke-linecap:butt;stroke-linejoin:miter;stroke-miterlimit:10;stroke-opacity:1;stroke-dasharray:none"
           id="path5123" /><path
           inkscape:connector-curvature="0"
           d="M 63.037,8.619 77.209,22.791"
           style="fill:none;stroke:#000000;stroke-width:0.47199999999999998;stroke-linecap:butt;stroke-linejoin:miter;stroke-miterlimit:10;stroke-opacity:1;stroke-dasharray:none"
           id="path5125" /><path
           inkscape:connector-curvature="0"
           d="M 63.037,65.31 77.209,79.482"
           style="fill:none;stroke:#000000;stroke-width:0.47199999999999998;stroke-linecap:butt;stroke-linejoin:miter;stroke-miterlimit:10;stroke-opacity:1;stroke-dasharray:none"
           id="path5127" /><path
           inkscape:connector-curvature="0"
           d="M 6.345,8.619 20.518,22.791"
           style="fill:none;stroke:#000000;stroke-width:0.47199999999999998;stroke-linecap:butt;stroke-linejoin:miter;stroke-miterlimit:10;stroke-opacity:1;stroke-dasharray:1.88999999999999990, 1.88999999999999990;stroke-dashoffset:0"
           id="path5129" /><path
           inkscape:connector-curvature="0"
           d="m 20.518,79.482 56.691,0 0,-56.691"
           style="fill:none;stroke:#000000;stroke-width:0.47199999999999998;stroke-linecap:butt;stroke-linejoin:miter;stroke-miterlimit:10;stroke-opacity:1;stroke-dasharray:none"
           id="path5131" /><path
           inkscape:connector-curvature="0"
           d="m 20.266,22.791 0.504,0"
           style="fill:none;stroke:#000000;stroke-width:0.47199999999999998;stroke-linecap:butt;stroke-linejoin:miter;stroke-miterlimit:10;stroke-opacity:1;stroke-dasharray:none"
           id="path5133" /><path
           inkscape:connector-curvature="0"
           d="m 20.266,79.482 0.504,0"
           style="fill:none;stroke:#000000;stroke-width:0.47199999999999998;stroke-linecap:butt;stroke-linejoin:miter;stroke-miterlimit:10;stroke-opacity:1;stroke-dasharray:none"
           id="path5135" /><path
           inkscape:connector-curvature="0"
           d="m 20.518,79.482 0,-56.691 56.691,0"
           style="fill:none;stroke:#000000;stroke-width:0.47199999999999998;stroke-linecap:butt;stroke-linejoin:miter;stroke-miterlimit:10;stroke-opacity:1;stroke-dasharray:1.88999999999999990, 1.88999999999999990;stroke-dashoffset:0"
           id="path5137" /></g></g><text
       transform="scale(1,-1)"
       id="text5139"
       x="79.372597"
       y="-17.0103"
       style="-inkscape-font-specification:LMRoman10;font-family:LMRoman10;font-weight:normal;font-style:normal;font-stretch:normal;font-variant:normal;font-size:9.96259994px;text-anchor:start;text-align:start;writing-mode:lr;line-height:125%"
       sodipodi:linespacing="125%"><tspan
         style="font-size:9.96259994px;font-variant:normal;font-weight:normal;font-stretch:normal;writing-mode:lr;fill:#000000;fill-opacity:1;fill-rule:nonzero;stroke:none;font-family:LMRoman10;-inkscape-font-specification:LMRoman10;font-style:normal;text-anchor:start;text-align:start;line-height:125%"
         x="79.372597"
         y="-17.0103"
         id="tspan5141">2</tspan></text>
<text
       transform="scale(1,-1)"
       id="text5143"
       x="14.1675"
       y="-79.371101"
       style="-inkscape-font-specification:LMRoman10;font-family:LMRoman10;font-weight:normal;font-style:normal;font-stretch:normal;font-variant:normal;font-size:9.96259994px;text-anchor:start;text-align:start;writing-mode:lr;line-height:125%"
       sodipodi:linespacing="125%"><tspan
         style="font-size:9.96259994px;font-variant:normal;font-weight:normal;font-stretch:normal;writing-mode:lr;fill:#000000;fill-opacity:1;fill-rule:nonzero;stroke:none;font-family:LMRoman10;-inkscape-font-specification:LMRoman10;font-style:normal;text-anchor:start;text-align:start;line-height:125%"
         x="14.1675"
         y="-79.371101"
         id="tspan5145">7</tspan></text>
<text
       transform="scale(1,-1)"
       id="text5147"
       x="14.1675"
       y="-22.680201"
       style="-inkscape-font-specification:LMRoman10;font-family:LMRoman10;font-weight:normal;font-style:normal;font-stretch:normal;font-variant:normal;font-size:9.96259994px;text-anchor:start;text-align:start;writing-mode:lr;line-height:125%"
       sodipodi:linespacing="125%"><tspan
         style="font-size:9.96259994px;font-variant:normal;font-weight:normal;font-stretch:normal;writing-mode:lr;fill:#000000;fill-opacity:1;fill-rule:nonzero;stroke:none;font-family:LMRoman10;-inkscape-font-specification:LMRoman10;font-style:normal;text-anchor:start;text-align:start;line-height:125%"
         x="14.1675"
         y="-22.680201"
         id="tspan5149">3</tspan></text>
<text
       transform="scale(1,-1)"
       id="text5151"
       x="62.362301"
       style="-inkscape-font-specification:LMRoman10;font-family:LMRoman10;font-weight:normal;font-style:normal;font-stretch:normal;font-variant:normal;font-size:9.96259994px;text-anchor:start;text-align:start;writing-mode:lr;line-height:125%"
       sodipodi:linespacing="125%"><tspan
         style="font-size:9.96259994px;font-variant:normal;font-weight:normal;font-stretch:normal;writing-mode:lr;fill:#000000;fill-opacity:1;fill-rule:nonzero;stroke:none;font-family:LMRoman10;-inkscape-font-specification:LMRoman10;font-style:normal;text-anchor:start;text-align:start;line-height:125%"
         x="62.362301"
         y="0"
         id="tspan5153">1</tspan></text>
<text
       transform="scale(1,-1)"
       id="text5155"
       x="2.8364"
       style="-inkscape-font-specification:LMRoman10;font-family:LMRoman10;font-weight:normal;font-style:normal;font-stretch:normal;font-variant:normal;font-size:9.96259994px;text-anchor:start;text-align:start;writing-mode:lr;line-height:125%"
       sodipodi:linespacing="125%"><tspan
         style="font-size:9.96259994px;font-variant:normal;font-weight:normal;font-stretch:normal;writing-mode:lr;fill:#000000;fill-opacity:1;fill-rule:nonzero;stroke:none;font-family:LMRoman10;-inkscape-font-specification:LMRoman10;font-style:normal;text-anchor:start;text-align:start;line-height:125%"
         x="2.8364"
         y="0"
         id="tspan5157">0</tspan></text>
<text
       transform="scale(1,-1)"
       id="text5159"
       x="0.0015"
       y="-62.360802"
       style="-inkscape-font-specification:LMRoman10;font-family:LMRoman10;font-weight:normal;font-style:normal;font-stretch:normal;font-variant:normal;font-size:9.96259994px;text-anchor:start;text-align:start;writing-mode:lr;line-height:125%"
       sodipodi:linespacing="125%"><tspan
         style="font-size:9.96259994px;font-variant:normal;font-weight:normal;font-stretch:normal;writing-mode:lr;fill:#000000;fill-opacity:1;fill-rule:nonzero;stroke:none;font-family:LMRoman10;-inkscape-font-specification:LMRoman10;font-style:normal;text-anchor:start;text-align:start;line-height:125%"
         x="0.0015"
         y="-62.360802"
         id="tspan5161">4</tspan></text>
<text
       transform="scale(1,-1)"
       id="text5163"
       x="79.371597"
       y="-79.371101"
       style="-inkscape-font-specification:LMRoman10;font-family:LMRoman10;font-weight:normal;font-style:normal;font-stretch:normal;font-variant:normal;font-size:9.96259994px;text-anchor:start;text-align:start;writing-mode:lr;line-height:125%"
       sodipodi:linespacing="125%"><tspan
         style="font-size:9.96259994px;font-variant:normal;font-weight:normal;font-stretch:normal;writing-mode:lr;fill:#000000;fill-opacity:1;fill-rule:nonzero;stroke:none;font-family:LMRoman10;-inkscape-font-specification:LMRoman10;font-style:normal;text-anchor:start;text-align:start;line-height:125%"
         x="79.371597"
         y="-79.371101"
         id="tspan5165">6</tspan></text>
<text
       transform="scale(1,-1)"
       id="text5167"
       x="65.197304"
       y="-59.525902"
       style="-inkscape-font-specification:LMRoman10;font-family:LMRoman10;font-weight:normal;font-style:normal;font-stretch:normal;font-variant:normal;font-size:9.96259994px;text-anchor:start;text-align:start;writing-mode:lr;line-height:125%"
       sodipodi:linespacing="125%"><tspan
         style="font-size:9.96259994px;font-variant:normal;font-weight:normal;font-stretch:normal;writing-mode:lr;fill:#000000;fill-opacity:1;fill-rule:nonzero;stroke:none;font-family:LMRoman10;-inkscape-font-specification:LMRoman10;font-style:normal;text-anchor:start;text-align:start;line-height:125%"
         x="65.197304"
         y="-59.525902"
         id="tspan5169">5</tspan></text>
</g></svg>

<?xml version="1.0" encoding="UTF-8" standalone="no"?>
<!-- Created with Inkscape (http://www.inkscape.org/) -->
<svg
   xmlns:dc="http://purl.org/dc/elements/1.1/"
   xmlns:cc="http://creativecommons.org/ns#"
   xmlns:rdf="http://www.w3.org/1999/02/22-rdf-syntax-ns#"
   xmlns:svg="http://www.w3.org/2000/svg"
   xmlns="http://www.w3.org/2000/svg"
   xmlns:sodipodi="http://sodipodi.sourceforge.net/DTD/sodipodi-0.dtd"
   xmlns:inkscape="http://www.inkscape.org/namespaces/inkscape"
   id="svg5094"
   sodipodi:version="0.32"
   inkscape:version="0.46"
   width="107.25052"
   height="110.13538"
   xml:space="preserve"
   sodipodi:docname="tbl-5-1-1v.svg"
   version="1.0"
   inkscape:output_extension="org.inkscape.output.svg.inkscape"><metadata
     id="metadata5099"><rdf:RDF><cc:Work
         rdf:about=""><dc:format>image/svg+xml</dc:format><dc:type
           rdf:resource="http://purl.org/dc/dcmitype/StillImage" /></cc:Work></rdf:RDF></metadata><defs
     id="defs5097"><inkscape:perspective
       sodipodi:type="inkscape:persp3d"
       inkscape:vp_x="0 : 526.18109 : 1"
       inkscape:vp_y="0 : 1000 : 0"
       inkscape:vp_z="744.09448 : 526.18109 : 1"
       inkscape:persp3d-origin="372.04724 : 350.78739 : 1"
       id="perspective5101" /><clipPath
       clipPathUnits="userSpaceOnUse"
       id="clipPath5117"><path
         d="M 0,0 L 81,0 L 81,87 L 0,87 L 0,0 z"
         id="path5119" /></clipPath></defs><sodipodi:namedview
     inkscape:window-height="722"
     inkscape:window-width="789"
     inkscape:pageshadow="2"
     inkscape:pageopacity="0.0"
     guidetolerance="10.0"
     gridtolerance="10.0"
     objecttolerance="10.0"
     borderopacity="1.0"
     bordercolor="#666666"
     pagecolor="#ffffff"
     id="base"
     showgrid="false"
     inkscape:zoom="4.5425287"
     inkscape:cx="50.625"
     inkscape:cy="54.375"
     inkscape:window-x="0"
     inkscape:window-y="25"
     inkscape:current-layer="g5103" /><g
     id="g5103"
     inkscape:groupmode="layer"
     inkscape:label="tbl-5-1-1v"
     transform="matrix(1.25,0,0,-1.25,0.2527412,108.8776)"><g
       clip-path="none"
       id="g5107"><g
         id="g5113"><g
           clip-path="url(#clipPath5117)"
           id="g5115"><path
             id="path5121"
             style="fill:none;stroke:#000000;stroke-width:0.472;stroke-linecap:butt;stroke-linejoin:miter;stroke-miterlimit:10;stroke-dasharray:none;stroke-opacity:1"
             d="M 6.345,8.619 L 63.037,8.619 L 63.037,65.31 L 6.345,65.31 L 6.345,8.619 z" /><path
             id="path5123"
             style="fill:none;stroke:#000000;stroke-width:0.472;stroke-linecap:butt;stroke-linejoin:miter;stroke-miterlimit:10;stroke-dasharray:none;stroke-opacity:1"
             d="M 6.345,65.31 L 20.518,79.482" /><path
             id="path5125"
             style="fill:none;stroke:#000000;stroke-width:0.472;stroke-linecap:butt;stroke-linejoin:miter;stroke-miterlimit:10;stroke-dasharray:none;stroke-opacity:1"
             d="M 63.037,8.619 L 77.209,22.791" /><path
             id="path5127"
             style="fill:none;stroke:#000000;stroke-width:0.472;stroke-linecap:butt;stroke-linejoin:miter;stroke-miterlimit:10;stroke-dasharray:none;stroke-opacity:1"
             d="M 63.037,65.31 L 77.209,79.482" /><path
             id="path5129"
             style="fill:none;stroke:#000000;stroke-width:0.472;stroke-linecap:butt;stroke-linejoin:miter;stroke-miterlimit:10;stroke-dasharray:1.89, 1.89;stroke-dashoffset:0;stroke-opacity:1"
             d="M 6.345,8.619 L 20.518,22.791" /><path
             id="path5131"
             style="fill:none;stroke:#000000;stroke-width:0.472;stroke-linecap:butt;stroke-linejoin:miter;stroke-miterlimit:10;stroke-dasharray:none;stroke-opacity:1"
             d="M 20.518,79.482 L 77.209,79.482 L 77.209,22.791" /><path
             id="path5133"
             style="fill:none;stroke:#000000;stroke-width:0.472;stroke-linecap:butt;stroke-linejoin:miter;stroke-miterlimit:10;stroke-dasharray:none;stroke-opacity:1"
             d="M 20.266,22.791 L 20.77,22.791" /><path
             id="path5135"
             style="fill:none;stroke:#000000;stroke-width:0.472;stroke-linecap:butt;stroke-linejoin:miter;stroke-miterlimit:10;stroke-dasharray:none;stroke-opacity:1"
             d="M 20.266,79.482 L 20.77,79.482" /><path
             id="path5137"
             style="fill:none;stroke:#000000;stroke-width:0.472;stroke-linecap:butt;stroke-linejoin:miter;stroke-miterlimit:10;stroke-dasharray:1.89, 1.89;stroke-dashoffset:0;stroke-opacity:1"
             d="M 20.518,79.482 L 20.518,22.791 L 77.209,22.791" /></g></g><text
         id="text5139"
         transform="matrix(1,0,0,-1,79.3726,17.0103)"><tspan
           id="tspan5141"
           y="0"
           x="0"
           style="font-size:9.96259975px;font-variant:normal;font-weight:normal;font-stretch:normal;writing-mode:lr-tb;fill:#000000;fill-opacity:1;fill-rule:nonzero;stroke:none;font-family:cmr 10;-inkscape-font-specification:cmr10">2</tspan></text>
<text
         id="text5143"
         transform="matrix(1,0,0,-1,14.1675,79.3711)"><tspan
           id="tspan5145"
           y="0"
           x="0"
           style="font-size:9.96259975px;font-variant:normal;font-weight:normal;font-stretch:normal;writing-mode:lr-tb;fill:#000000;fill-opacity:1;fill-rule:nonzero;stroke:none;font-family:cmr 10;-inkscape-font-specification:cmr10">7</tspan></text>
<text
         id="text5147"
         transform="matrix(1,0,0,-1,14.1675,22.6802)"><tspan
           id="tspan5149"
           y="0"
           x="0"
           style="font-size:9.96259975px;font-variant:normal;font-weight:normal;font-stretch:normal;writing-mode:lr-tb;fill:#000000;fill-opacity:1;fill-rule:nonzero;stroke:none;font-family:cmr 10;-inkscape-font-specification:cmr10">3</tspan></text>
<text
         id="text5151"
         transform="matrix(1,0,0,-1,62.3623,0)"><tspan
           id="tspan5153"
           y="0"
           x="0"
           style="font-size:9.96259975px;font-variant:normal;font-weight:normal;font-stretch:normal;writing-mode:lr-tb;fill:#000000;fill-opacity:1;fill-rule:nonzero;stroke:none;font-family:cmr 10;-inkscape-font-specification:cmr10">1</tspan></text>
<text
         id="text5155"
         transform="matrix(1,0,0,-1,2.8364,0)"><tspan
           id="tspan5157"
           y="0"
           x="0"
           style="font-size:9.96259975px;font-variant:normal;font-weight:normal;font-stretch:normal;writing-mode:lr-tb;fill:#000000;fill-opacity:1;fill-rule:nonzero;stroke:none;font-family:cmr 10;-inkscape-font-specification:cmr10">0</tspan></text>
<text
         id="text5159"
         transform="matrix(1,0,0,-1,1.5e-3,62.3608)"><tspan
           id="tspan5161"
           y="0"
           x="0"
           style="font-size:9.96259975px;font-variant:normal;font-weight:normal;font-stretch:normal;writing-mode:lr-tb;fill:#000000;fill-opacity:1;fill-rule:nonzero;stroke:none;font-family:cmr 10;-inkscape-font-specification:cmr10">4</tspan></text>
<text
         id="text5163"
         transform="matrix(1,0,0,-1,79.3716,79.3711)"><tspan
           id="tspan5165"
           y="0"
           x="0"
           style="font-size:9.96259975px;font-variant:normal;font-weight:normal;font-stretch:normal;writing-mode:lr-tb;fill:#000000;fill-opacity:1;fill-rule:nonzero;stroke:none;font-family:cmr 10;-inkscape-font-specification:cmr10">6</tspan></text>
<text
         id="text5167"
         transform="matrix(1,0,0,-1,65.1973,59.5259)"><tspan
           id="tspan5169"
           y="0"
           x="0"
           style="font-size:9.96259975px;font-variant:normal;font-weight:normal;font-stretch:normal;writing-mode:lr-tb;fill:#000000;fill-opacity:1;fill-rule:nonzero;stroke:none;font-family:cmr 10;-inkscape-font-specification:cmr10">5</tspan></text>
</g></g></svg>
